assets/svgs/misc-grey/MiscGrey75.svg

<svg width="42" height="31" viewBox="0 0 42 31" fill="none" xmlns="http://www.w3.org/2000/svg">
<path fill-rule="evenodd" clip-rule="evenodd" d="M19.96 27.6H4.67004L12.54 12.87L19.96 27.6ZM36.13 27.6H25.93L30.95 22.42L36.13 27.6ZM3.67004 3.37H37.52C37.79 3.37 38.02 3.59 38.02 3.87V25.26L31.99 19.22C31.71 18.94 31.33 18.81 30.92 18.79C30.51 18.79 30.13 18.95 29.85 19.24L22.78 26.54L13.91 8.93999C13.66 8.43999 13.15 8.12 12.59 8.10999C12.02 8.12999 11.51 8.41 11.25 8.91L3.17004 24.04V3.87C3.17004 3.59 3.40004 3.37 3.67004 3.37ZM37.52 0.369995H3.67004C1.74004 0.369995 0.170044 1.94 0.170044 3.87V27.1C0.170044 28.17 0.660044 29.11 1.41004 29.75C1.44004 29.78 1.47004 29.81 1.50004 29.83C2.10004 30.31 2.85004 30.6 3.67004 30.6H37.52C39.45 30.6 41.02 29.03 41.02 27.1V3.87C41.02 1.94 39.45 0.369995 37.52 0.369995Z" fill="#1A1919"/>
</svg>

<svg xmlns="http://www.w3.org/2000/svg" fill="none" viewBox="0 0 42 31"><path fill="#1A1919" fill-rule="evenodd" d="M19.96 27.6H4.67l7.87-14.73 7.42 14.73zm16.17 0h-10.2l5.02-5.18 5.18 5.18zM3.67 3.37h33.85c.27 0 .5.22.5.5v21.39l-6.03-6.04c-.28-.28-.66-.41-1.07-.43-.41 0-.79.16-1.07.45l-7.07 7.3-8.87-17.6c-.25-.5-.76-.82-1.32-.83-.57.02-1.08.3-1.34.8L3.17 24.04V3.87c0-.28.23-.5.5-.5zm33.85-3H3.67C1.74.37.17 1.94.17 3.87V27.1c0 1.07.49 2.01 1.24 2.65.03.03.06.06.09.08.6.48 1.35.77 2.17.77h33.85c1.93 0 3.5-1.57 3.5-3.5V3.87c0-1.93-1.57-3.5-3.5-3.5z" clip-rule="evenodd"/></svg>
